packages/web/src/assets/images/icons/bell.svg

<svg fill="none" height="24" viewBox="0 0 24 24" width="24" xmlns="http://www.w3.org/2000/svg"><g fill="#606266"><path d="m12 1.5c.3978 0 .7794.15804 1.0607.43934s.4393.66284.4393 1.06066v1.5h-3v-1.5c0-.39782.158-.77936.4393-1.06066s.6629-.43934 1.0607-.43934z"/><path d="m6 18h12v-7.5c0-1.5913-.6321-3.11742-1.7574-4.24264-1.1252-1.12522-2.6513-1.75736-4.2426-1.75736s-3.11742.63214-4.24264 1.75736-1.75736 2.65134-1.75736 4.24264zm6-15c1.9891 0 3.8968.79018 5.3033 2.1967s2.1967 3.31418 2.1967 5.3033v9h-15v-9c0-1.98912.79018-3.89678 2.1967-5.3033s3.3142-2.1967 5.3033-2.1967z"/><path d="m2.25 18h19.5c.5 0 .75.25.75.75s-.25.75-.75.75h-19.5c-.5 0-.75-.25-.75-.75s.25-.75.75-.75zm8.25 3h3c0 .3978-.158.7794-.4393 1.0607s-.6629.4393-1.0607.4393-.7794-.158-1.0607-.4393-.4393-.6629-.4393-1.0607z"/></g></svg>

<svg width="24" height="24" viewBox="0 0 24 24" fill="none" xmlns="http://www.w3.org/2000/svg">
    <path d="M12 1.5C12.3978 1.5 12.7794 1.65804 13.0607 1.93934C13.342 2.22064 13.5 2.60218 13.5 3V4.5H10.5V3C10.5 2.60218 10.658 2.22064 10.9393 1.93934C11.2206 1.65804 11.6022 1.5 12 1.5Z" fill="#606266"/>
    <path d="M6 18H18V10.5C18 8.9087 17.3679 7.38258 16.2426 6.25736C15.1174 5.13214 13.5913 4.5 12 4.5C10.4087 4.5 8.88258 5.13214 7.75736 6.25736C6.63214 7.38258 6 8.9087 6 10.5V18ZM12 3C13.9891 3 15.8968 3.79018 17.3033 5.1967C18.7098 6.60322 19.5 8.51088 19.5 10.5V19.5H4.5V10.5C4.5 8.51088 5.29018 6.60322 6.6967 5.1967C8.10322 3.79018 10.0109 3 12 3V3Z" fill="#606266"/>
    <path d="M2.25 18H21.75C22.25 18 22.5 18.25 22.5 18.75C22.5 19.25 22.25 19.5 21.75 19.5H2.25C1.75 19.5 1.5 19.25 1.5 18.75C1.5 18.25 1.75 18 2.25 18ZM10.5 21H13.5C13.5 21.3978 13.342 21.7794 13.0607 22.0607C12.7794 22.342 12.3978 22.5 12 22.5C11.6022 22.5 11.2206 22.342 10.9393 22.0607C10.658 21.7794 10.5 21.3978 10.5 21Z" fill="#606266"/>
</svg>
